X: 8
T: Haapavesi Waltz
C: Keith Murphy
R:Waltz
M:3/4
L:1/8
K:Gmaj
D FD|"G"FG GD FD|FG GD FG|"Am7"A2 Ac Bc |"D"A2 D2 EF|
"G"FG GD FD|FG GD FG|"Am7"A2 Ac "D"B/2A/2F|"G"G3 :|]
|: A Bc |"G"d2 dc BG|"C"c3 B2 c| "D"AD Dc Bc|
A2 D2 Bc|"G"d2 dc BG|"C"c3 B2 c|"D"A2 Ac B/2A/2F|1 "G"G3:|]

%%newpage
%%header "Maison de Glace		$P"


